public/icons/weather-icons/Thunderstorm.svg

<svg width="248" height="213" viewBox="0 0 248 213" fill="none" xmlns="http://www.w3.org/2000/svg">
<path d="M104.775 106.212H140.993L120.172 136.788L144.516 137.248L93.4191 197.726L105.8 151.617H83.1344L104.775 106.212Z" fill="url(#paint0_linear_1506_806)"/>
<path d="M160.739 138.393H176.641L167.5 151.817L178.188 152.019L155.753 178.572L161.189 158.328H151.24L160.739 138.393Z" fill="url(#paint1_linear_1506_806)"/>
<path d="M50.6034 151.969H66.5049L57.3637 165.394L68.0522 165.596L45.6174 192.149L51.0535 171.904H41.104L50.6034 151.969Z" fill="url(#paint2_linear_1506_806)"/>
<g filter="url(#filter0_d_1506_806)">
<path d="M160.114 145.585H58.2611C48.3806 145.577 38.886 141.748 31.765 134.898C24.644 128.049 20.4487 118.71 20.0574 108.837C19.6661 98.9644 23.109 89.323 29.6655 81.9313C36.222 74.5396 45.3837 69.9707 55.2327 69.1812C56.6372 59.2636 61.1157 50.036 68.038 42.7964C74.9604 35.5569 83.9783 30.6698 93.8231 28.8227C103.668 26.9756 113.844 28.2615 122.92 32.4994C131.996 36.7373 139.514 43.714 144.418 52.448C153.413 49.3344 163.131 48.9706 172.333 51.403C181.535 53.8354 189.804 58.9538 196.085 66.1052C202.366 73.2566 206.375 82.1169 207.6 91.556C208.824 100.995 207.21 110.585 202.962 119.103C200.469 126.798 195.602 133.506 189.06 138.263C182.518 143.021 174.637 145.584 166.548 145.585H160.114Z" fill="url(#paint3_linear_1506_806)"/>
<path d="M166.548 145.052C170.655 145.052 174.694 144.397 178.551 143.103C182.281 141.852 185.782 140.027 188.959 137.678C192.098 135.356 194.851 132.575 197.139 129.411C199.456 126.208 201.245 122.685 202.456 118.939L202.468 118.9L202.486 118.864C204.097 115.646 205.337 112.242 206.173 108.747C207.032 105.15 207.468 101.433 207.468 97.6992C207.468 94.4861 207.144 91.2751 206.506 88.1554C205.884 85.1154 204.956 82.125 203.747 79.2675C202.56 76.4618 201.091 73.7556 199.381 71.2241C197.687 68.7166 195.741 66.3586 193.598 64.2156C191.455 62.0727 189.097 60.1271 186.59 58.433C184.058 56.7228 181.352 55.2539 178.547 54.0672C175.689 52.8586 172.699 51.9303 169.659 51.3082C166.539 50.6698 163.328 50.3461 160.115 50.3461C154.794 50.3461 149.572 51.2217 144.593 52.9485L144.173 53.0942L143.955 52.7067C139.903 45.5016 134.009 39.4507 126.91 35.2082C123.32 33.0626 119.463 31.4046 115.446 30.2802C111.302 29.1202 106.998 28.5321 102.653 28.5321C96.8081 28.5321 91.103 29.5839 85.6956 31.6584C80.4719 33.6625 75.6799 36.5575 71.4527 40.2629C67.2499 43.9469 63.7621 48.2938 61.0862 53.1827C58.3446 58.1917 56.5527 63.5985 55.7602 69.253L55.701 69.6763L55.2749 69.7096C50.5086 70.0827 45.9228 71.3376 41.645 73.4394C37.4884 75.4817 33.7767 78.2441 30.6129 81.6497C24.1122 88.6475 20.5321 97.7651 20.5321 107.323C20.5321 112.416 21.5295 117.357 23.4968 122.009C24.4424 124.244 25.6127 126.4 26.9754 128.417C28.3252 130.415 29.8754 132.294 31.5828 134.002C33.2903 135.709 35.1691 137.259 37.1671 138.609C39.1841 139.972 41.3403 141.142 43.5758 142.088C48.2269 144.055 53.168 145.052 58.2617 145.052H160.115H166.548ZM166.548 145.584H160.115H58.2617C37.1304 145.584 20 128.454 20 107.323C20 87.2104 35.5173 70.7225 55.2333 69.1792C58.4946 45.9076 78.4821 28 102.653 28C120.584 28 136.213 37.8554 144.419 52.4459C149.336 50.7404 154.617 49.8141 160.115 49.8141C186.561 49.8141 208 71.2532 208 97.6992C208 105.392 206.186 112.661 202.962 119.102C197.994 134.469 183.569 145.584 166.548 145.584Z" fill="white" fill-opacity="0.5"/>
</g>
<defs>
<filter id="filter0_d_1506_806" x="0" y="0" width="248" height="177.585" filterUnits="userSpaceOnUse" color-interpolation-filters="sRGB">
<feFlood flood-opacity="0" result="BackgroundImageFix"/>
<feColorMatrix in="SourceAlpha" type="matrix" values="0 0 0 0 0 0 0 0 0 0 0 0 0 0 0 0 0 0 127 0" result="hardAlpha"/>
<feOffset dx="10" dy="2"/>
<feGaussianBlur stdDeviation="15"/>
<feColorMatrix type="matrix" values="0 0 0 0 0.501961 0 0 0 0 0.501961 0 0 0 0 0.501961 0 0 0 0.302 0"/>
<feBlend mode="normal" in2="BackgroundImageFix" result="effect1_dropShadow_1506_806"/>
<feBlend mode="normal" in="SourceGraphic" in2="effect1_dropShadow_1506_806" result="shape"/>
</filter>
<linearGradient id="paint0_linear_1506_806" x1="108.178" y1="151.969" x2="79.5063" y2="141.458" gradientUnits="userSpaceOnUse">
<stop stop-color="#FFD100"/>
<stop offset="1" stop-color="#FFF0AA"/>
</linearGradient>
<linearGradient id="paint1_linear_1506_806" x1="162.235" y1="158.483" x2="149.647" y2="153.868" gradientUnits="userSpaceOnUse">
<stop stop-color="#FFD100"/>
<stop offset="1" stop-color="#FFF0AA"/>
</linearGradient>
<linearGradient id="paint2_linear_1506_806" x1="52.0989" y1="172.059" x2="39.511" y2="167.445" gradientUnits="userSpaceOnUse">
<stop stop-color="#FFD100"/>
<stop offset="1" stop-color="#FFF0AA"/>
</linearGradient>
<linearGradient id="paint3_linear_1506_806" x1="114.013" y1="28.0013" x2="168.624" y2="160.039" gradientUnits="userSpaceOnUse">
<stop stop-color="white" stop-opacity="0.604"/>
<stop offset="1" stop-color="white" stop-opacity="0.2"/>
</linearGradient>
</defs>
</svg>

<svg xmlns="http://www.w3.org/2000/svg" width="248" height="213" fill="none"><path fill="url(#a)" d="M104.775 106.212h36.218l-20.821 30.576 24.344.46-51.097 60.478 12.381-46.109H83.134z"/><path fill="url(#b)" d="M160.739 138.393h15.902l-9.141 13.424 10.688.202-22.435 26.553 5.436-20.244h-9.949z"/><path fill="url(#c)" d="M50.603 151.969h15.902l-9.141 13.425 10.688.202-22.435 26.553 5.437-20.245h-9.95z"/><g filter="url(#d)"><path fill="url(#e)" d="M160.114 145.585H58.261a38.264 38.264 0 0 1-3.028-76.404 47.896 47.896 0 0 1 89.185-16.733 47.909 47.909 0 0 1 58.544 66.655 38.281 38.281 0 0 1-36.414 26.482z"/><path fill="#fff" fill-opacity=".5" d="M166.548 145.052c4.107 0 8.146-.655 12.003-1.949a37.6 37.6 0 0 0 10.408-5.425 37.9 37.9 0 0 0 8.18-8.267 37.6 37.6 0 0 0 5.317-10.472l.012-.039.018-.036a47 47 0 0 0 3.687-10.117 47.6 47.6 0 0 0 1.295-11.048c0-3.213-.324-6.424-.962-9.544a47.1 47.1 0 0 0-7.125-16.93 47.7 47.7 0 0 0-12.791-12.792 47.127 47.127 0 0 0-16.931-7.125 47.7 47.7 0 0 0-9.544-.962c-5.321 0-10.543.876-15.522 2.603l-.42.145-.218-.387a47.6 47.6 0 0 0-17.045-17.499 47.1 47.1 0 0 0-24.257-6.676 47.16 47.16 0 0 0-31.2 11.73 47.4 47.4 0 0 0-10.367 12.92 46.9 46.9 0 0 0-5.326 16.071l-.059.423-.426.034a37.4 37.4 0 0 0-13.63 3.73 37.7 37.7 0 0 0-11.032 8.21 37.6 37.6 0 0 0-10.08 25.673c0 5.093.996 10.034 2.964 14.686a37.8 37.8 0 0 0 3.478 6.408 38 38 0 0 0 4.608 5.585 38 38 0 0 0 5.584 4.607 37.497 37.497 0 0 0 21.095 6.443h108.286m0 .532H58.262C37.13 145.584 20 128.454 20 107.323c0-20.113 15.517-36.6 35.233-38.144C58.495 45.908 78.483 28 102.653 28c17.931 0 33.56 9.855 41.766 24.446a47.8 47.8 0 0 1 15.696-2.632C186.561 49.814 208 71.254 208 97.7a47.7 47.7 0 0 1-5.038 21.403c-4.968 15.367-19.393 26.482-36.414 26.482"/></g><defs><linearGradient id="a" x1="108.178" x2="79.506" y1="151.969" y2="141.458" gradientUnits="userSpaceOnUse"><stop stop-color="#FFD100"/><stop offset="1" stop-color="#FFF0AA"/></linearGradient><linearGradient id="b" x1="162.235" x2="149.647" y1="158.483" y2="153.868" gradientUnits="userSpaceOnUse"><stop stop-color="#FFD100"/><stop offset="1" stop-color="#FFF0AA"/></linearGradient><linearGradient id="c" x1="52.099" x2="39.511" y1="172.059" y2="167.445" gradientUnits="userSpaceOnUse"><stop stop-color="#FFD100"/><stop offset="1" stop-color="#FFF0AA"/></linearGradient><linearGradient id="e" x1="114.013" x2="168.624" y1="28.001" y2="160.039" gradientUnits="userSpaceOnUse"><stop stop-color="#fff" stop-opacity=".604"/><stop offset="1" stop-color="#fff" stop-opacity=".2"/></linearGradient><filter id="d" width="248" height="177.585" x="0" y="0" color-interpolation-filters="sRGB" filterUnits="userSpaceOnUse"><feFlood flood-opacity="0" result="BackgroundImageFix"/><feColorMatrix in="SourceAlpha" result="hardAlpha" values="0 0 0 0 0 0 0 0 0 0 0 0 0 0 0 0 0 0 127 0"/><feOffset dx="10" dy="2"/><feGaussianBlur stdDeviation="15"/><feColorMatrix values="0 0 0 0 0.501961 0 0 0 0 0.501961 0 0 0 0 0.501961 0 0 0 0.302 0"/><feBlend in2="BackgroundImageFix" result="effect1_dropShadow_1506_806"/><feBlend in="SourceGraphic" in2="effect1_dropShadow_1506_806" result="shape"/></filter></defs></svg>
